X:1
T:Valse in B Minor
T:Valse op. 69-2 in B Minor (Excerpt)
T:Excerpted for Grade 4 Piano Educational Purposes
T:Frédéric François Chopin
C:Frédéric François Chopin
%%score { ( 1 4 ) | ( 2 3 ) }
L:1/8
Q:1/4=114
M:3/4
K:D
V:1 treble nm="Piano" snm="Pno."
V:4 treble 
V:2 bass 
V:3 bass 
V:1
"^Moderato"!p! (!>!f2- | fgfcdB | ^A4) (!>!f2- | fgfced | B4) (!>!f2- |!<(! fg^efbd')!<)! | %6
 (!>!d'2 ^e2) (!>!d'2- | d'2 e2) !>!c'2- |!>(! c'(b^agfc)!>)! | (dgfcdB | ^A4) (!>!f2- | fgfced | %12
 B4) (!>!f2- |!f! ff'c'd'^ab) | (agB[Q:1/4=115]"_rit."c[Q:1/4=112]"^.5"d[Q:1/4=110]"^.1"e) | %15
[Q:1/4=107]"^.6" (g[Q:1/4=105]"^.2"f[Q:1/4=102]"^.7"B[Q:1/4=100]"^.3"d[Q:1/4=97]"^.8"c[Q:1/4=95]"^.4"F | %16
[Q:1/4=92]"^.9" B)[Q:1/4=90]"^.5""_a tempo\n"(^E[Q:1/4=88][Q:1/4=114]"^Moderato"F^ABc) | (dgfcdB | %18
 ^A4) (!>!f2- | fgfced | B4) (!>!f2- |!<(! fg^efbd')!<)! |!f! (!>!d'2 ^e2) !>!d'2- | %23
 d'2 (e2 !>!c'2- |"_dim." c')((b^agfc)) | (dgfcdB | ^A4) (!>!f2- | fgfced | B4) !>!f2 | %29
!f! (f'c'd'^abf) | (agB[Q:1/4=115]"_rit.\n"c[Q:1/4=112]"^.9"e[Q:1/4=110]"^.8"g) | %31
[Q:1/4=108]"^.8" (g[Q:1/4=106]"^.7"f[Q:1/4=104]"^.6"B[Q:1/4=102]"^.5"d[Q:1/4=100]"^.5"c[Q:1/4=98]"^.4"F | %32
[Q:1/4=96]"^.3" B3)"_a tempo"[Q:1/4=114]"^Moderato" (F B_B)[Q:1/4=92]"^.2" | %33
"^con anima" (_B3!<(! A ce)!<)! |!>(! (g3 f cd)!>)! | (f3 e Bc) | (e3 d cB) | (B3!<(! A ce)!<)! | %38
!>(! (g3 f cd)!>)! | (f3 e Bc | %40
"_rit." (^A3)[Q:1/4=108]"^.3" c[Q:1/4=106]"^.1" G[Q:1/4=103]"^.9"c[Q:1/4=110]"^.6" | %41
"_a tempo"[Q:1/4=114]"^Moderato" (F3)!<(! ^A ce)!<)! | (g3!>(! f cd)!>)! | (f3 e Bc) | (e3 d cB) | %45
 (B3 A ce) | (g3 f cd) | (f3 e) (f'!f!e' | d'c'=c'b^a=a | ^g=gfcdB | ^A2) z2 (a2 | ^g=gfced | %52
 B2) z2 (a2 | ^g=g!<(!^efbd')!<)! | (!>!d'2 ^e2) (!>!d'2- | d'2 e2) (!>!c'2 | =c'b^a=a^g=g | %57
 f=fedcB | ^A4) (!>!g2 | fgfced | B4) (!>!f2 | f'c'd'^abf) | %62
 (ag"_rit. e dim.""^rit."[Q:1/4=116]"_dim."B[Q:1/4=113]c[Q:1/4=110]e[Q:1/4=107]g) | %63
[Q:1/4=104] (g[Q:1/4=101]f[Q:1/4=98]B[Q:1/4=95]d[Q:1/4=92]c[Q:1/4=89]F | %64
[Q:1/4=86] B2)[Q:1/4=80] z2 |] %65
V:2
 z2 | B,,2 [F,B,D]2 [F,B,D]2 | C,2 [F,CE]2 [F,CE]2 | ^A,,2 [F,CE]2 [F,^A,E]2 | %4
 B,,2 [F,B,D]2 [F,B,D]2 | B,,2 [F,B,D]2 [F,B,D]2 | B,,2 [^G,B,D]2 [G,B,D]2 | %7
 B,,2 [G,B,E]2 [G,B,E]2 | B,,2 [F,CE]2 [F,^A,E]2 | B,,2 [F,B,D]2 [F,B,D]2 | C,2 [F,CE]2 [F,CE]2 | %11
 F,,2 [F,CE]2 [F,^A,E]2 | B,,2 [F,B,D]2 [F,B,D]2 | D,2 [F,B,D]2 [F,B,D]2 | E,2 [B,CG]2 z2 | %15
 z2 [B,D]2 [^A,E]2 | [B,D]2 B,,2 z2 | B,,2 [F,B,D]2 [F,B,D]2 | C,2 [F,CE]2 [F,CE]2 | %19
 ^A,,2 [F,CE]2 [F,^A,E]2 | B,,2 [F,B,D]2 [F,B,D]2 | B,,2 [F,B,D]2 [F,B,D]2 | %22
 B,,2 [^G,B,D]2 [G,B,D]2 | B,,2 [G,B,E]2 [G,B,E]2 | B,,2 [F,CE]2 [F,^A,E]2 | %25
 B,,2 [F,B,D]2 [F,B,D]2 | C,2 [F,CE]2 [F,CE]2 | F,,2 [F,CE]2 [F,^A,E]2 | B,,2 [F,B,D]2 [F,B,D]2 | %29
 D,2 [F,B,D]2 [F,B,D]2 | (E,2 [G,C]2) z2 | z2 [B,D]2 [^A,E]2 | B,,2 [F,D]2 D,2 | %33
 C,2 [G,A,E]2 [G,A,E]2 | D,2 [F,A,D]2 [F,A,D]2 | A,,2 [A,CG]2 [A,CG]2 | D,2 [A,DF]2 [A,DF]2 | %37
 C,2 [A,EG]2 [A,EG]2 | D,2 [A,DF]2 [A,DF]2 | G,,2 [G,B,E]2 [G,B,E]2 | [F,,F,]2 [F,CE]2 [F,CE]2 | %41
 [F,,F,]2 [F,CE]2 [F,^A,E]2 | B,,2 [F,B,D]2 [F,B,D]2 | A,,2 [A,CG]2 [A,CG]2 | D,2 [A,DF]2 [A,DF]2 | %45
 C,2 [A,EG]2 [A,EG]2 | D,2 [A,DF]2 [A,DF]2 | G,,2 [G,E]2 z2 | F,,2 [F,E]2 ^A,,2 | %49
 B,,2 [F,D]2 [F,D]2 | C,2 [F,CE]2 [F,CE]2 | ^A,,2 [F,CE]2 [F,CE]2 | B,,2 [F,B,D]2 [F,B,D]2 | %53
 B,,2 [F,B,D]2 [F,B,D]2 | B,,2 [^G,B,D]2 [G,B,D]2 | B,,2 [G,B,E]2 [G,B,E]2 | %56
 B,,2 [F,^A,E]2 [F,A,E]2 | B,,2 [F,B,D]2 [F,B,D]2 | C,2 [F,CE]2 [F,CE]2 | ^A,,2 [F,CE]2 [F,^A,E]2 | %60
 B,,2 [F,B,D]2 [F,B,D]2 | D,2 [F,B,D]2 [F,B,D]2 | (E,2 [G,C]2) z2 | z2 [B,D]2 [^A,E]2 | %64
 [B,D]2 B,,2 |] %65
V:3
 x2 | x6 | x6 | x6 | x6 | x6 | x6 | x6 | x6 | x6 | x6 | x6 | x6 | x6 | x6 | F,6 | x6 | x6 | x6 | %19
 x6 | x6 | x6 | x6 | x6 | x6 | x6 | x6 | x6 | x6 | x6 | x6 | F,6 | x6 | x6 | x6 | x6 | x6 | x6 | %38
 x6 | x6 | x6 | x6 | x6 | x6 | x6 | x6 | x6 | x6 | x6 | x6 | x6 | x6 | x6 | x6 | x6 | x6 | x6 | %57
 x6 | x6 | x6 | x6 | x6 | x6 | F,6 | x4 |] %65
V:4
 x2 | x6 | x6 | x6 | x6 | x6 | x6 | x6 | x6 | x6 | x6 | x6 | x6 | x6 | x6 | x6 | x6 | x6 | x6 | %19
 x6 | x6 | x6 | x6 | x6 | x6 | x6 | x6 | x6 | x6 | x6 | x6 | x6 | x6 | x6 | x6 | x6 | x6 | x6 | %38
 x6 | x6 | x4 G2 | x6 | x6 | x6 | x6 | x6 | x6 | x6 | x6 | x6 | x6 | x6 | x6 | x6 | x6 | x6 | x6 | %57
 x6 | x6 | x6 | x6 | x6 | x6 | x6 | x4 |] %65

